pix/e/insert.svg

<!DOCTYPE svg PUBLIC "-//W3C//DTD SVG 1.1//EN" "http://www.w3.org/Graphics/SVG/1.1/DTD/svg11.dtd" [
	<!ENTITY ns_flows "http://ns.adobe.com/Flows/1.0/">
]><svg xmlns="http://www.w3.org/2000/svg" width="16" height="16" viewBox="0 -0.6 16 16" preserveAspectRatio="xMinYMid meet" overflow="visible"><path d="M16 15.4H0v-1h16v1zm-14.7-3H5V12c-.4 0-.7 0-.9-.1-.3-.1-.5-.3-.5-.6 0-.2.1-.5.2-1 .1-.2.2-.7.5-1.4h4l.5 1.1c.1.2.2.4.2.6.1.3.1.5.1.6 0 .3-.1.5-.3.6s-.5.1-1 .2v.5h5.8V12c-.4 0-.7-.1-.9-.4s-.6-1-1-2.1L7.6 0h-.5l-4 9.9c-.3.8-.6 1.3-.7 1.5-.3.4-.6.6-1 .6v.4zm3.3-4.2L6.2 4h.2l1.7 4.2H4.6z" fill="#999"/></svg>

<?xml version="1.0" encoding="utf-8"?>
<!-- Generator: Adobe Illustrator 15.1.0, SVG Export Plug-In  -->
<!DOCTYPE svg PUBLIC "-//W3C//DTD SVG 1.1//EN" "http://www.w3.org/Graphics/SVG/1.1/DTD/svg11.dtd" [
	<!ENTITY ns_flows "http://ns.adobe.com/Flows/1.0/">
]>
<svg version="1.1"
	 xmlns="http://www.w3.org/2000/svg" xmlns:xlink="http://www.w3.org/1999/xlink" xmlns:a="http://ns.adobe.com/AdobeSVGViewerExtensions/3.0/"
	 x="0px" y="0px" width="16px" height="16px" viewBox="0 -0.6 16 16" style="overflow:visible;enable-background:new 0 -0.6 16 16;"
	 xml:space="preserve" preserveAspectRatio="xMinYMid meet">
<defs>
</defs>
<path style="fill:#999999;" d="M16,15.4H0v-1h16V15.4z M1.3,12.4H5V12c-0.4,0-0.7,0-0.9-0.1c-0.3-0.1-0.5-0.3-0.5-0.6
	c0-0.2,0.1-0.5,0.2-1C3.9,10.1,4,9.6,4.3,8.9h4L8.8,10C8.9,10.2,9,10.4,9,10.6c0.1,0.3,0.1,0.5,0.1,0.6c0,0.3-0.1,0.5-0.3,0.6
	S8.3,11.9,7.8,12v0.5h5.8V12c-0.4,0-0.7-0.1-0.9-0.4s-0.6-1-1-2.1L7.6,0H7.1l-4,9.9c-0.3,0.8-0.6,1.3-0.7,1.5
	c-0.3,0.4-0.6,0.6-1,0.6V12.4z M4.6,8.2L6.2,4h0.2l1.7,4.2H4.6z"/>
</svg>
